symbols/web/military_tech/materialsymbolsoutlined/military_tech_wght600gradN25_20px.svg

<svg xmlns="http://www.w3.org/2000/svg" height="20" width="20"><path d="M5.646 1.125h8.708v6.75q0 .479-.219.906-.218.427-.635.677l-2.896 1.646.542 1.917h3.687l-3 2.125 1.146 3.625-3-2.209L7 18.771l1.146-3.625-3-2.125h3.687l.563-1.917L6.5 9.458q-.417-.25-.635-.666-.219-.417-.219-.917Zm2.021 1.979v4.667q0 .021.021.042l.041.041 1.459.875V3.104Zm4.666 0h-1.5v5.584l1.438-.834.041-.041q.021-.021.021-.042Zm-2.312 3.042Zm-.833-.25Zm1.645-.021Z"/></svg>

<svg xmlns="http://www.w3.org/2000/svg" height="20" width="20"><path d="M5.646 1.125H14.354V7.875Q14.354 8.354 14.135 8.781Q13.917 9.208 13.5 9.458L10.604 11.104L11.146 13.021H14.833L11.833 15.146L12.979 18.771L9.979 16.562L7 18.771L8.146 15.146L5.146 13.021H8.833L9.396 11.104L6.5 9.458Q6.083 9.208 5.865 8.792Q5.646 8.375 5.646 7.875ZM7.667 3.104V7.771Q7.667 7.792 7.688 7.813Q7.708 7.833 7.729 7.854L9.188 8.729V3.104ZM12.333 3.104H10.833V8.688L12.271 7.854Q12.292 7.833 12.312 7.813Q12.333 7.792 12.333 7.771ZM10.021 6.146ZM9.188 5.896Q9.188 5.896 9.188 5.896Q9.188 5.896 9.188 5.896ZM10.833 5.875Q10.833 5.875 10.833 5.875Q10.833 5.875 10.833 5.875Z"/></svg>
